dist/img/svg/ic-data.svg

<svg width="32" height="32" viewBox="0 0 32 32" fill="none" xmlns="http://www.w3.org/2000/svg">
<g clip-path="url(#clip0)">
<path d="M28.5625 20.7325C26.9921 20.7325 25.6653 21.7914 25.256 23.2325H21.9375V19.5728H25.3258C29.006 19.5728 32 16.5788 32 12.8986C32 9.9479 30.043 7.35578 27.2647 6.51153C26.4249 3.14878 23.3894 0.736965 19.8739 0.736965C18.5111 0.736965 17.2056 1.0884 16.0534 1.75984C14.8333 0.643965 13.2333 0.0170898 11.5522 0.0170898C7.94644 0.0170898 4.99931 2.89153 4.88169 6.46915C2.02788 7.26684 0 9.87978 0 12.8986C0 16.5788 2.994 19.5728 6.67419 19.5728H10.0625V23.2325H6.744C6.33481 21.7914 5.00794 20.7325 3.4375 20.7325C1.54206 20.7325 0 22.2745 0 24.17C0 26.0654 1.54206 27.6075 3.4375 27.6075C5.00794 27.6075 6.33475 26.5485 6.744 25.1075H11C11.5177 25.1075 11.9375 24.6877 11.9375 24.17V19.5728H15.0625V25.2385C13.6214 25.6477 12.5625 26.9745 12.5625 28.545C12.5625 30.4404 14.1046 31.9825 16 31.9825C17.8954 31.9825 19.4375 30.4404 19.4375 28.545C19.4375 26.9745 18.3786 25.6477 16.9375 25.2385V19.5728H20.0625V24.17C20.0625 24.6877 20.4823 25.1075 21 25.1075H25.256C25.6652 26.5485 26.9921 27.6075 28.5625 27.6075C30.4579 27.6075 32 26.0654 32 24.17C32 22.2745 30.4579 20.7325 28.5625 20.7325ZM3.4375 25.7325C2.57594 25.7325 1.875 25.0315 1.875 24.17C1.875 23.3084 2.57594 22.6075 3.4375 22.6075C4.29906 22.6075 5 23.3084 5 24.17C5 25.0315 4.29906 25.7325 3.4375 25.7325ZM17.5625 28.545C17.5625 29.4065 16.8616 30.1075 16 30.1075C15.1384 30.1075 14.4375 29.4065 14.4375 28.545C14.4375 27.6834 15.1384 26.9825 16 26.9825C16.8616 26.9825 17.5625 27.6834 17.5625 28.545ZM6.67419 17.6978C4.02794 17.6978 1.875 15.5449 1.875 12.8986C1.875 10.5334 3.63794 8.49197 5.97563 8.15009C6.46894 8.07796 6.81944 7.63234 6.77344 7.13596C6.75987 6.98953 6.753 6.8399 6.753 6.69122C6.753 4.04503 8.90594 1.89215 11.5522 1.89215C12.9641 1.89215 14.2955 2.5059 15.205 3.57603C15.5243 3.95171 16.08 4.01584 16.4766 3.72284C17.4598 2.99609 18.6346 2.61196 19.8738 2.61196C22.7256 2.61196 25.0971 4.7044 25.5404 7.42634C25.6031 7.81121 25.8976 8.11709 26.2798 8.19447C28.5078 8.64553 30.1249 10.6238 30.1249 12.8986C30.1249 15.5449 27.972 17.6978 25.3258 17.6978H6.67419ZM28.5625 25.7325C27.7009 25.7325 27 25.0315 27 24.17C27 23.3084 27.7009 22.6075 28.5625 22.6075C29.4241 22.6075 30.125 23.3084 30.125 24.17C30.125 25.0315 29.4241 25.7325 28.5625 25.7325Z" fill="#E78238"/>
</g>
<defs>
<clipPath id="clip0">
<rect width="32" height="32" fill="white"/>
</clipPath>
</defs>
</svg>

<svg width="32" height="32" viewBox="0 0 32 32" fill="none" xmlns="http://www.w3.org/2000/svg"><g clip-path="url(#clip0)"><path d="M28.563 20.733a3.443 3.443 0 00-3.307 2.5h-3.319v-3.66h3.389A6.682 6.682 0 0032 12.899a6.698 6.698 0 00-4.735-6.387A7.63 7.63 0 0019.874.737a7.548 7.548 0 00-3.82 1.023A6.66 6.66 0 0011.551.017a6.682 6.682 0 00-6.67 6.452A6.685 6.685 0 000 12.9a6.682 6.682 0 006.674 6.674h3.388v3.66H6.745a3.443 3.443 0 00-3.306-2.5A3.441 3.441 0 000 24.17a3.441 3.441 0 003.438 3.438 3.443 3.443 0 003.306-2.5H11c.518 0 .938-.42.938-.938v-4.597h3.124v5.665a3.443 3.443 0 00-2.5 3.307A3.441 3.441 0 0016 31.983a3.441 3.441 0 003.438-3.438 3.443 3.443 0 00-2.5-3.307v-5.665h3.125v4.597c0 .518.42.938.937.938h4.256a3.443 3.443 0 003.306 2.5A3.441 3.441 0 0032 24.17a3.441 3.441 0 00-3.438-3.438zm-25.125 5a1.564 1.564 0 01-1.563-1.563c0-.862.7-1.563 1.563-1.563.861 0 1.562.701 1.562 1.563 0 .861-.7 1.563-1.563 1.563zm14.124 2.812c0 .861-.7 1.563-1.562 1.563a1.564 1.564 0 01-1.563-1.563c0-.862.701-1.563 1.563-1.563s1.563.701 1.563 1.563zM6.675 17.698a4.805 4.805 0 01-4.799-4.8c0-2.365 1.763-4.406 4.1-4.748a.937.937 0 00.798-1.014 4.805 4.805 0 014.779-5.244c1.412 0 2.744.614 3.653 1.684.32.376.875.44 1.272.147a5.672 5.672 0 013.397-1.111 5.753 5.753 0 015.666 4.814.938.938 0 00.74.768 4.813 4.813 0 013.845 4.705 4.805 4.805 0 01-4.8 4.799H6.676zm21.889 8.035A1.564 1.564 0 0127 24.17c0-.862.7-1.563 1.563-1.563.861 0 1.562.701 1.562 1.563 0 .861-.7 1.563-1.563 1.563z" fill="#E78238"/></g><defs><clipPath id="clip0"><path fill="#fff" d="M0 0h32v32H0z"/></clipPath></defs></svg>
